!!!!SEGMENT: pl-wumfc--r282--002-015_paderewski-ignacy-jan--exercises-2-exercise-15.krn
!!!cenid: 18xx:3190
!!!COM: Paderewski, Ignacy Jan
!!!COM-rismID: pe30029943
!!!CDT: 1860/11/18-1941/06/29
!!!CNT: Polish
!!!GTL: [Exercises 2]
!!!OTL: [Exercise] 15
!!!OMV: 015
!!!PDT:
!!!AGN:
!!!SMS-siglum: PL-Wumfc
!!!SMS-shelfmark: R282
!!!SMS-shelfwork: 002-015 G
!!!SMS-variant:
!!!SMS-altvar:
!!!NIFC-rismSourceID: 1001158933
!!!NIFC-rismChildID: 1001158933
!!!NIFC-islandoraID: pl-wumfc:419
!!!URL-pdf-islandora: https://repozytorium.nifc.pl/islandora/object/pl-wumfc%3A419/datastream/PDF/view
!!!URL-scan: https://polish.musicsources.pl/pl/lokalizacje/galeria/rekopisy/4702 @EN{Scan on Polish Music Sources Website} @PL{Skany w portalu Dziedzictwo Muzyki Polskiej w otwartym dostępie}
!!!ONB-nifc: UWAGA: druga grupa ćwiczeń od skanu 0008
!!!OMD:
!!!AIN: 1 piano
!!!key: G
!!!filter-modern: sic -sq | shed -k -e "s/LO:N:vis/LO:n:vis:/L" | shed -e "s/TX(.*):t=P:/tx$1:t=P:/LG" | autostem -r | modori -m |
**kern	**kern
*part1	*part1
*staff2	*staff1
*I"[Pianoforte]	*I"[Pianoforte]
*I'	*I'
*mI"Pianoforte	*mI"Pianoforte
*mI'pf	*mI'pf
*Ipiano	*Ipiano
*ICklav	*ICklav
*IGsolo	*IGsolo
*clefF4	*clefG2
*k[f#]	*k[f#]
*G:	*G:
!LO:MO:mod=*M3/2	!LO:MO:mod=*M3/2
*	*
=1	=1
!	!LO:TX:a:t=C.f.:rj
!	!LO:N:vis=1
4G\	1.g 1.b
4A\	.
4G\	.
4F#\	.
4E\	.
4D\	.
=2	=2
4C\	1.g 1.ee
4D\	.
4C\	.
4BB\	.
4C\	.
4E\	.
=3	=3
4F#\	1.f# 1.dd
4E\	.
4D\	.
4E\	.
4F#\	.
4D\	.
=4	=4
4G\	1.e 1.ee
4A\	.
4G\	.
4F#\	.
4E\	.
4C\	.
=5	=5
4BB\	1.d 1.ff#
4C\	.
4BB\	.
4AA\	.
4BB\	.
4D\	.
=6	=6
4C\	1.g 1.ee
4BB\	.
4C\	.
4D\	.
4E\	.
4C\	.
!!LO:LB:g=original
=7	=7
4c\	1.a 1.cc
4d\	.
4c\	.
4B\	.
4c\	.
4A\	.
=8	=8
*	*^
1.G;>	1.b;>	1.b
*	*v	*v
=9	=9
4g\	1.b 1.dd
4f#\	.
4g\	.
4a\	.
4g\	.
4f#\	.
=10	=10
4e\	1.b 1.gg
4f#\	.
4g\	.
4f#\	.
4g\	.
4e\	.
=11	=11
4d\	1.b 1.ff#
4e\	.
4d\	.
4c#X\	.
4d\	.
4B\	.
=12	=12
4cn\	1.a 1.aa
4d\	.
4c\	.
4B\	.
4c\	.
4d\	.
!!LO:LB:g=original
=13	=13
4e\	1.g 1.ee
4f#\	.
4e\	.
4d\	.
4c\	.
4B\	.
=14	=14
4A\	1.cc 1.ee
4B\	.
4c\	.
4B\	.
4c\	.
4A\	.
=15	=15
4d\	1.b 1.dd
4e\	.
4d\	.
4c\	.
4d\	.
4G\	.
=16	=16
1.A;>	1.a;> 1.cc
=17	=17
4E\	1.g 1.gg
4F#\	.
4G\	.
4F#\	.
4G\	.
4E\	.
=18	=18
4D\	1.a 1.ff#
4E\	.
4F#\	.
4G\	.
4A\	.
4F#\	.
!!LO:LB:g=original
=19	=19
4G\	1.b 1.ee
4A\	.
4G\	.
4e\	.
4g\	.
4e\	.
=20	=20
4f#\	1.a 1.aa
4e\	.
4d\	.
4c\	.
4d\	.
4A\	.
=21	=21
4B\	1.g 1.dd
4c\	.
4B\	.
4A\	.
4B\	.
4G\	.
=22	=22
4c\	1.e 1.ee
4d\	.
4c\	.
4B\	.
4A\	.
4G\	.
=23	=23
4F#\	1.f# 1.dd
4E\	.
4D\	.
4E\	.
4F#\	.
4D\	.
=24	=24
1.E;>	1.g;> 1.cc
!!LO:LB:g=original
=25	=25
*	*^
4B\	1.dd	1.dd
4c\	.	.
4B\	.	.
4A\	.	.
4G\	.	.
4F#\	.	.
*	*v	*v
=26	=26
4G\	1.b 1.ee
4A\	.
4G\	.
4F#\	.
4G\	.
4E\	.
=27	=27
4BB\	1.g 1.gg
4C\	.
4BB\	.
4AA\	.
4BB\	.
4E\	.
=28	=28
4D\	1.a 1.ff#
4E\	.
4F#\	.
4G\	.
4A\	.
4d\	.
=29	=29
4A\	1.cc 1.ee
4B\	.
4c\	.
4d\	.
4e\	.
4A\	.
=30	=30
4B\	1.b 1.gg
4A\	.
4G\	.
4A\	.
4B\	.
4c\	.
!!LO:LB:g=original
=31	=31
4d\	1.a 1.ff#
4e\	.
4d\	.
4c\	.
4d\	.
4D\	.
=32	=32
1.G;>	1.g;> 1.gg
!!LO:PB:g=original
==	==
*-	*-
!!!system-decoration: {(s1,s2)}
!!!RDF**kern: < = below
!!!RDF**kern: > = above
!!!ENC: Anastazja Marusiak
!!!END: 2021-11-13
!!!ENC: Marta Chmielewska
!!!END: 2021-11-16
!!!ENC-modern: Andrzej Borzym
!!!END-modern: 2022-08-29
!!!YEC: Copyright 2022 Narodowy Instytut Fryderyka Chopina (https://polishscores.org)
!!!YEM: License CC-BY-4.0 (https://creativecommons.org/licenses/by/4.0)
